common/icons/svgs/bookmark.svg

<svg xmlns="http://www.w3.org/2000/svg" width="24" height="24" viewBox="0 0 24 24">
  <g fill="none" fill-rule="evenodd" transform="translate(-24 -66)">
    <rect width="504" height="450" fill="#FFF"/>
    <g transform="translate(24 66)">
      <rect width="24" height="24"/>
      <path fill="#000" fill-rule="nonzero" d="M17.5871615,2 L5.58716148,2 C4.04953252,2.12238642 2.89800193,3.46137547 3.00716148,5 L3.00716148,20 C2.93251979,21.0263674 3.70118499,21.9201642 4.72716148,22 C5.04352717,21.997272 5.35115727,21.8958939 5.60716148,21.71 L11.6071615,17 L17.6071615,21.71 C17.8631657,21.8958939 18.1707958,21.997272 18.4871615,22 C19.513138,21.9201642 20.2818032,21.0263674 20.2071615,20 L20.2071615,5 C20.2592927,4.25433561 20.0121817,3.51862938 19.5204914,2.95562521 C19.0288011,2.39262105 18.3330564,2.04872157 17.5871615,2 L17.5871615,2 Z M18.1671615,19.64 L12.8171615,15.43 C12.092186,14.8608557 11.0721369,14.8608557 10.3471615,15.43 L4.99716148,19.63 L4.99716148,5 C4.99716148,4.4 5.34716148,4 5.57716148,4 L17.5771615,4 C17.8071615,4 18.1571615,4.4 18.1571615,5 L18.1671615,19.64 Z"/>
    </g>
  </g>
</svg>

<svg xmlns="http://www.w3.org/2000/svg" viewbox="0 0 24 24"><path class="icon__shape" fill-rule="nonzero" d="M17.587 2h-12a2.81 2.81 0 0 0-2.58 3v15a1.87 1.87 0 0 0 1.72 2 1.52 1.52 0 0 0 .88-.29l6-4.71 6 4.71c.256.186.564.287.88.29a1.87 1.87 0 0 0 1.72-2V5a2.81 2.81 0 0 0-2.62-3zm.58 17.64l-5.35-4.21a2 2 0 0 0-2.47 0l-5.35 4.2V5c0-.6.35-1 .58-1h12c.23 0 .58.4.58 1l.01 14.64z"/></svg>
